X: 705
T: Sigr. Geminianis minuet with his Graces
M:3/8
L:1/8
S: 8: MCJLSH3 http://www.cpartington.plus.com/links/Walsh.abc
Z: Pete Stewart 2004
N:Trills placed as printed. Where they occur over demi-semi=quavers they
N:may be intended to indicate a trill ending with the demi-semi-quaver
N:pair. A slur mark occurs over the note group and thus restricts the
N:position of the trill mark
B: Walsh "Third Book of the most Celebrated jiggs, Lancashire hornpipes, ..."
K:D
|: d2c | d2c | de2 | f2e | g2f | e2d | cd2 | e3 :|
|: ecA | fdA | gec | a3 | bge | cde | fe2 | d3 :|
|: B2c | d2c | BAF | B2A | Ggf | e2d | cB2 | F3 :|
|: A3 | B3 | c3 | dcB | e3 | fdc | BfF | B3 :|
|: [L:1/16] d4Tc>Bc/ | d4c>Bc/ |\
de e3Td/e/ | egf2 e2 |\
g3a/g/ f2 | e3f/e/ d2 |\
cd Td3c/d/ | e6 :|
|: e2TcBcA | f2TdcdA |\
g2Tfedc | a6 |\
b/a/g/f/ g/f/e/d/ e/d/c/B/ | c/A/B/c/ d/e/f/g/ a/g/ f/e/ |\
g/f/e/d/ e3Td/e/ | d6 :|
|: dAdfec | dAdfec |\
dAabag | Tf4e2 |\
gabgaf | efgefd |\
cd d3Tc/d/ | e/a/^g/f/ e/d/c/B/ A2 :|
|: ec/B/cA/B/cd/e/ | fd/c/dA/B/c/d/e/f/ |\
g/f/e/d/ c/A/B/c/ e/d/f/^g/ | a6 |\
b/a/g/f/ g/f/e/d/ e/d/c/B/ | c/A/B/c/ d/e/f/g/ a/c'/b/a/ |
d'dTe3d | d6 :|\
|: d/A/B/c/ d/f/e/c/ | d/A/B/c/ dfec |\
d/A/B/c/ d/e/f/^g/ a=g | Tf4e2 |
gE g/b/a/g/ fD | eC e/g/f/e/ fd |\
cdd3Tc/d/ | e/c/A/c/ e/c/A/c/a2 :|\
|: [L:1/32] efed cAa>g | fgfe dAb>a |
gagf efed cef^g | agab agab a2=gf |\
gabg efge cdec | ABcA defd abc'a |\
d'2d2 e6d2 | d12 :|
|: [L:1/16] (3dAd (3fAf (3eAe | (3dAd (3fAf (3eAe |\
(3dAd (3eAe (3aAa | Tf4e2 |
(3gba (3bag (3agf | (3egf (3gfe (3fed |\
(3cBA (3dcd d>cd/ | (3ea^g (3aed (3cBA :|\
|: (3ede (3cBA (3cBA | (3fef (3dcd (3ABA |
(3gfe (3edc (3cBA | a6 |\
(3bag (3gfe (3gfe | (3c'ba (3c'ba (3c'ba |\
(d'd e3d | d6 :|

%%sep 1 1 500
%%sep 1 1 500
